X: 68
T: Pollonesse #68
M: 3/4
L: 1/16
K: Dm
Q:120
AdAe d4 c4|dcde f4 e4|f2fd g2ge a2af|gece d2dA GFED|
A,D^CE E4 ^C4|D^CDE F4 [EA,]4|F2FD G2GE A2AG|FED^C ^C4 D4:|
gfed c4 B4|Acea gbeg f4|gfed c4 B4|Acea gbeg f4|Adce d4 c4|dcde f4 e4|
A,D^CE E4 ^C4|D^CDE F4 [EA,]4|F2FD G2GE A2AG|FED^C ^C4 D4:|

